dist/svgs/unicons/line/postcard.svg

<svg xmlns="http://www.w3.org/2000/svg" data-name="Layer 1" viewBox="0 0 24 24"><path d="M17 11h1a1 1 0 001-1V9a1 1 0 00-1-1h-1a1 1 0 00-1 1v1a1 1 0 001 1zM6 12h5a1 1 0 000-2H6a1 1 0 000 2zm16-8H2a1 1 0 00-1 1v14a1 1 0 001 1h20a1 1 0 001-1V5a1 1 0 00-1-1zm-1 14H3V6h18zM6 16h5a1 1 0 000-2H6a1 1 0 000 2z"/></svg>

<svg xmlns="http://www.w3.org/2000/svg" data-name="Layer 1" viewBox="0 0 24 24"><path d="M17,11h1a1,1,0,0,0,1-1V9a1,1,0,0,0-1-1H17a1,1,0,0,0-1,1v1A1,1,0,0,0,17,11ZM6,12h5a1,1,0,0,0,0-2H6a1,1,0,0,0,0,2ZM22,4H2A1,1,0,0,0,1,5V19a1,1,0,0,0,1,1H22a1,1,0,0,0,1-1V5A1,1,0,0,0,22,4ZM21,18H3V6H21ZM6,16h5a1,1,0,0,0,0-2H6a1,1,0,0,0,0,2Z"/></svg>
